dist/assets/img/clients/1.svg

<svg width="214" height="43" viewBox="0 0 214 43" fill="none" xmlns="http://www.w3.org/2000/svg">
<path fill-rule="evenodd" clip-rule="evenodd" d="M0 11.6586H10.6666V15.997C12.202 14.1864 13.7497 12.8981 15.3119 12.1322C16.134 11.7368 17.0031 11.4475 17.8982 11.2714C18.9092 11.0729 19.9376 10.9766 20.9679 10.984C23.3447 10.984 25.226 11.4041 26.6104 12.2443C27.3033 12.6643 27.9328 13.1867 28.499 13.8126C29.0652 14.4385 29.5681 15.1666 30.0077 15.997C31.8 14.0561 33.4317 12.735 34.9062 12.0348C35.6931 11.6686 36.5233 11.4038 37.3769 11.247C38.3627 11.0648 39.3636 10.9768 40.3662 10.984C43.5576 10.984 46.0477 11.9362 47.8401 13.8394C48.7363 14.7916 49.4084 16.0117 49.8553 17.4996C50.3022 18.9876 50.5274 20.7446 50.5274 22.7708V41.5372H39.0742V24.5242C39.0742 23.8496 39.0097 23.2615 38.8794 22.7611C38.7727 22.3101 38.5733 21.8863 38.2937 21.5166C37.9126 21.0016 37.4852 20.6143 37.0116 20.3562C36.5321 20.0969 35.9944 19.9641 35.4493 19.9702C34.1111 19.9702 33.0335 20.4573 32.2165 21.4326C31.8086 21.9197 31.5005 22.5553 31.2971 23.3382C31.0926 24.1212 30.9903 25.0502 30.9903 26.1291V41.5372H19.5383V25.0442C19.5383 24.3866 19.5189 23.835 19.4823 23.3894C19.4458 22.9437 19.3886 22.6028 19.3143 22.3678C19.0916 21.6451 18.6499 21.0094 18.0504 20.5486C17.388 20.0421 16.6854 19.8606 15.9451 19.8582C14.6349 19.8582 13.5597 20.3562 12.7171 21.3522C12.2958 21.8503 11.9804 22.509 11.7698 23.326C11.5591 24.1431 11.4532 25.1209 11.4532 26.2569V41.5372H0V11.6586ZM88.3767 29.4058H65.4704C65.5726 30.3275 65.7492 31.1312 65.9964 31.8167C66.2448 32.5034 66.565 33.0721 66.9583 33.5238C67.4771 34.1471 68.1291 34.646 68.8664 34.9838C70.3896 35.6644 72.5351 35.7168 74.4809 34.6368C75.1287 34.2654 75.7923 33.6249 76.4742 32.775L87.7034 33.7856C85.9804 36.792 83.9007 38.946 81.4654 40.2525C80.2477 40.904 78.7658 41.3947 77.0197 41.721C75.2724 42.0474 73.2621 42.2093 70.9863 42.2093C67.0338 42.2093 63.924 41.6516 61.6579 40.5363C59.3919 39.4209 57.5143 37.648 56.0251 35.22C55.274 33.989 54.7098 32.6533 54.3508 31.2566C53.9782 29.8283 53.7919 28.2928 53.7919 26.6539C53.7919 21.9842 55.2872 18.2046 58.2765 15.3152C59.7718 13.871 61.5508 12.7885 63.6159 12.0665C65.681 11.3444 68.0299 10.9828 70.6636 10.9828C74.9376 10.9828 78.3117 11.6281 80.7847 12.9201C83.2589 14.212 85.1426 16.0835 86.4358 18.5358C87.0824 19.762 87.5682 21.1733 87.8909 22.7696C88.2939 24.7081 88.4145 26.9668 88.3767 29.4058ZM76.6995 23.902C76.4754 21.6932 75.8849 20.1115 74.9254 19.1568C74.453 18.6843 73.8851 18.3181 73.2596 18.0829C72.581 17.8359 71.8631 17.7146 71.1409 17.7249C70.2374 17.7249 69.4253 17.9051 68.7044 18.2655C67.9836 18.6259 67.3516 19.1666 66.811 19.8874C66.4664 20.3367 66.1851 20.8956 65.966 21.5653C65.7468 22.235 65.5921 23.0131 65.4984 23.9032H76.6995V23.902ZM94.3115 11.6586H90.1569V20.0822H94.3115L93.9243 41.0696L105.85 40.893L105.765 20.0822H112.051V11.6586H105.765V0.313762L94.3115 0.137207V11.6586ZM148.015 29.4058H125.108C125.21 30.3275 125.387 31.1312 125.637 31.8167C125.884 32.5034 126.205 33.0721 126.597 33.5238C127.149 34.1728 127.787 34.6587 128.504 34.9838C130.029 35.6644 132.174 35.7168 134.119 34.6368C134.768 34.2654 135.431 33.6249 136.112 32.775L147.342 33.7856C145.618 36.792 143.54 38.946 141.104 40.2525C139.887 40.904 138.405 41.3947 136.658 41.721C134.911 42.0474 132.9 42.2093 130.627 42.2093C126.674 42.2093 123.565 41.6516 121.297 40.5363C119.031 39.4209 117.155 37.648 115.665 35.22C114.914 33.989 114.35 32.6533 113.991 31.2566C113.617 29.8283 113.432 28.2928 113.432 26.6539C113.432 21.9842 114.926 18.2046 117.918 15.3152C119.412 13.871 121.191 12.7885 123.257 12.0665C125.321 11.3444 127.669 10.9828 130.304 10.9828C134.578 10.9828 137.952 11.6281 140.425 12.9201C142.898 14.212 144.782 16.0835 146.076 18.5358C146.723 19.762 147.208 21.1733 147.531 22.7696C147.932 24.7081 148.054 26.9668 148.015 29.4058ZM136.339 23.902C136.115 21.6932 135.523 20.1115 134.564 19.1568C134.092 18.6842 133.523 18.3181 132.897 18.0829C132.22 17.8361 131.503 17.7148 130.781 17.7249C129.878 17.7249 129.064 17.9051 128.343 18.2655C127.62 18.6259 126.991 19.1666 126.45 19.8874C126.105 20.3367 125.822 20.8956 125.606 21.5653C125.368 22.3259 125.211 23.1096 125.137 23.9032H136.339V23.902ZM190.531 11.6586H201.203V16.545C202.233 14.4299 203.298 12.9736 204.394 12.1785C204.951 11.7767 205.573 11.474 206.233 11.2835C206.957 11.0784 207.708 10.9779 208.461 10.9852C209.302 10.9852 210.185 11.1167 211.111 11.3785C212.033 11.6403 212.997 12.0336 214 12.5572L210.454 20.702C209.778 20.422 209.174 20.2101 208.64 20.0688C208.105 19.9276 207.641 19.8582 207.246 19.8582C206.497 19.8582 205.831 20.0128 205.25 20.3221C204.667 20.6326 204.17 21.0965 203.756 21.7175C203.167 22.5906 202.723 23.8423 202.429 25.4752C202.132 27.1081 201.984 29.1208 201.984 31.5135V41.5372H190.531V11.6586Z" fill="white"/>
</svg>

<svg width="214" height="43" fill="none" xmlns="http://www.w3.org/2000/svg"><path fill-rule="evenodd" clip-rule="evenodd" d="M0 11.659h10.667v4.338c1.535-1.81 3.083-3.099 4.645-3.865a10.759 10.759 0 012.586-.86 15.36 15.36 0 013.07-.288c2.377 0 4.258.42 5.642 1.26.693.42 1.323.943 1.889 1.569.566.625 1.07 1.354 1.509 2.184 1.792-1.94 3.424-3.262 4.898-3.962a10.241 10.241 0 012.47-.788c.987-.182 1.988-.27 2.99-.263 3.192 0 5.682.952 7.474 2.855.896.953 1.568 2.173 2.015 3.66.447 1.489.672 3.246.672 5.272v18.766H39.074V24.524c0-.674-.064-1.262-.195-1.763a3.336 3.336 0 00-.585-1.244c-.381-.515-.809-.903-1.282-1.16a3.209 3.209 0 00-1.563-.387c-1.338 0-2.416.487-3.232 1.463-.408.487-.716 1.122-.92 1.905-.204.783-.307 1.712-.307 2.791v15.408H19.538V25.044c0-.657-.02-1.209-.056-1.655-.036-.445-.093-.786-.168-1.021a3.65 3.65 0 00-1.264-1.82c-.662-.506-1.365-.687-2.105-.69-1.31 0-2.385.498-3.228 1.494-.421.498-.737 1.157-.947 1.974-.21.817-.317 1.795-.317 2.93v15.281H0V11.66zm88.377 17.747H65.47c.103.922.28 1.725.526 2.41.249.687.569 1.256.962 1.708a5.42 5.42 0 001.908 1.46c1.524.68 3.67.733 5.615-.347.648-.372 1.311-1.012 1.993-1.862l11.23 1.01c-1.724 3.007-3.803 5.161-6.239 6.468-1.217.651-2.7 1.142-4.445 1.468-1.748.326-3.758.488-6.034.488-3.952 0-7.062-.557-9.328-1.673-2.266-1.115-4.144-2.888-5.633-5.316a14.576 14.576 0 01-1.674-3.963c-.373-1.429-.56-2.964-.56-4.603 0-4.67 1.496-8.45 4.486-11.339 1.495-1.444 3.274-2.526 5.339-3.248 2.065-.723 4.414-1.084 7.048-1.084 4.274 0 7.648.645 10.12 1.937 2.475 1.292 4.359 3.164 5.652 5.616.646 1.226 1.132 2.637 1.455 4.234.403 1.938.523 4.197.486 6.636zM76.7 23.902c-.225-2.209-.815-3.79-1.775-4.745a4.69 4.69 0 00-1.665-1.074 5.946 5.946 0 00-2.12-.358c-.903 0-1.715.18-2.436.54-.72.36-1.352.902-1.893 1.622-.345.45-.626 1.009-.845 1.678-.22.67-.374 1.448-.468 2.338H76.7v-.001zm17.61-12.243h-4.154v8.423h4.154l-.387 20.988 11.926-.177-.085-20.81h6.286v-8.424h-6.286V.314L94.311.137V11.66zm53.704 17.747h-22.907c.102.922.279 1.725.529 2.41.247.687.568 1.256.96 1.708a5.443 5.443 0 001.907 1.46c1.525.68 3.67.733 5.615-.347.649-.372 1.312-1.012 1.993-1.862l11.23 1.01c-1.724 3.007-3.802 5.161-6.238 6.468-1.217.651-2.699 1.142-4.446 1.468-1.747.326-3.758.488-6.031.488-3.953 0-7.062-.557-9.33-1.673-2.266-1.115-4.142-2.888-5.632-5.316a14.578 14.578 0 01-1.674-3.963c-.374-1.429-.559-2.964-.559-4.603 0-4.67 1.494-8.45 4.486-11.339 1.494-1.444 3.273-2.526 5.339-3.248 2.064-.723 4.412-1.084 7.047-1.084 4.274 0 7.648.645 10.121 1.937 2.473 1.292 4.357 3.164 5.651 5.616.647 1.226 1.132 2.637 1.455 4.234.401 1.938.523 4.197.484 6.636zm-11.676-5.504c-.224-2.209-.816-3.79-1.775-4.745a4.685 4.685 0 00-1.667-1.074 5.935 5.935 0 00-2.116-.358c-.903 0-1.717.18-2.438.54-.723.36-1.352.902-1.893 1.622-.345.45-.628 1.009-.844 1.678a11.36 11.36 0 00-.469 2.338h11.202v-.001zm54.192-12.243h10.672v4.886c1.03-2.115 2.095-3.571 3.191-4.367a5.976 5.976 0 011.839-.895 7.897 7.897 0 012.228-.298c.841 0 1.724.132 2.65.394.922.261 1.886.655 2.889 1.178l-3.546 8.145c-.676-.28-1.28-.492-1.814-.633-.535-.141-.999-.21-1.394-.21-.749 0-1.415.154-1.996.463-.583.31-1.08.774-1.494 1.396-.589.873-1.033 2.124-1.327 3.757-.297 1.633-.445 3.646-.445 6.038v10.024H190.53V11.66z" fill="#fff"/></svg>
